X:2703
T:Carretera d'Avilés
R:Xiraldilla/Tonada
C:Tradicional
S:Música Tradicional Asturiana, (C) Tello & Tito. Asturies, 2001.
S:http://pagina.de/MusTradAst <telloytito@asturies.org>
A:Asturies
Z:Les cuarenta principales
M:3/4
L:1/8
Q:3/4=15
K:Cm
|GG/G/ c2 c>=B|c(3d/e/d/ c4|BA/G/ F2 B>A|[1 cB/>A/ G4 :|[2 cB/>A/ G2 C=E/F/|
|GA/G/ F2 G>E|FE/>D/ C2 C=E/F/|GA/G/ F2 G>E|FE/D/ C4|


